X: 35
M:2/4
L:1/16
K:C
v((3G,A,B,)|\
vTc2"0"ec gc"0"ec | agfe BcdB | uTc2"0"ec gc"0"ec | agfd cGAB |
vTc2"0"ec gc"0"ec | agfe BcdB | uTc2"0"ec gc"0"ec |\
v(ag)fd uc2  "_D.C." |]


